!!!COM: Robert Schumann
!!!CNT: Deutscher
!!!TXO: Deutsche 
!!!OTL: Er, der Herrlichste von allen
!!!OPR: Frauenliebe und Leben
!!!OPS: Opus 42
!!!ONM: No. 2
!!!LYR: Chamisso
!!!ENC: Brian Bice
!!!YOR: Sa2mtliche Lieder, vol. 1, C.F. Peters
!!!ODT: 1840/
!!NB: Vocal melody and text only encoded.
**kern	**silbe
*clefG2	*
*k[b-e-a-]	*
*M4/4	*
=2	=2
{4.b-	{Er,
8g	der
8.e-	Herr-
16g	-lich-
8.b-	-ste
16ee-	von
=3	=3
4ee-	al-
2f}	-len,}
{8f	{wie
8f	so
=4	=4
4.a-	mil-
8a-	-de,
(4a-S	wie
8b-)	|
8f	so
=5	=5
2g}	gut!}
4r	.
{8.g	{Hol-
16e-	-de
=6	=6
4b-	Lip-
4b-	-pen,
4r	.
8.g	kla-
16e-	-res
=7	=7
4b-	Au-
4b-}	-ge,}
4r	.
{8g	{hel-
8g	-ler
=8	=8
4.ee-	Sinn
8ee-	und
(4ee-S	fe-
8ff)	|
8cc	-ster
=9	=9
2dd}	Mut.}
2r	.
=10	=10
4r	.
{8b-	{So
8g	wie
8.e-	dort
16g	in
8b-	blau-
8ee-	-er
=11	=11
4ee-	Tie-
4f}	-fe,}
4r	.
{8f	{hell
8f	und
=12	=12
4.a-	herr-
8a-	-lich,
(4a-S	je-
8.b-)	|
16f	-ner
=13	=13
2g}	Stern,}
4r	.
{8.g	{al-
16e-	-do
=14	=14
[2b-	Er
8b-]	|
8g	an
8.g	mei-
16e-	-nem
=15	=15
4b-	Him-
4b-}	-mel,}
{4.g	{hell
8g	und
=16	=16
4.ee-	herr-
8ee-	-lich,
(4ee-S	hehr
8ff)	|
8cc	und
=17	=17
2dd}	fern.}
2r	.
=21	=21
{4.g	{Wand-
8g	-le,
8cc	wand-
8b-	-le
8a-	dei-
8g	-ne
=22	=22
4a-	Bah-
4a-}	-nen,}
4r	.
{8.a-	{nur
16a-	be-
=23	=23
4.b-	-trach-
8b-	-ten
(b-q	dei-
4.ee-)	|
8bn	-nen
=24	=24
2cc}	Schein,}
4r	.
{8ff	{nur
8ee-	in
=25	=25
4.dd	De-
8dd	-nut
4.ee-	ihn
8b-	be-
=26	=26
4cc	-trach-
4cc}	-ten,}
2r	.
=27	=27
{8.b-	{se-
16b-	-lig
8dd	nur
8cc	und
4.b-	trau-
8an	-rig
=28	=28
(2..a-	sein!
8b-)}	|}
=29	=29
{4.b-	{Ho2-
8g	-re
8e-	nicht
8g	mein
8.b-	stil-
16ee-	-les
=30	=30
4ee-	Be-
2f}	-ten,}
{8f	{dei-
8f	-nem
=31	=31
4.a-	Glu2k-
8a-	-ke
(4a-S	nur
8b-)	|
8f	ge-
=32	=32
2g}	-weiht;}
4r	.
{8.g	{darfst
16g	mich,
=33	=33
4.b-	nied'-
8f	-re
4.g	Magd,
8e-	nicht
=34	=34
4b-	ken-
4f}	-nen,}
{4.g	{ho-
8g	-her
=35	=35
4.ee-	Stern
8ee-	der
(4ee-S	Herr-
8ff)	|
8cc	-lich-
=36	=36
(2dd	-keit,
4dd-)}	|}
{8dd-	{ho-
8dd-	-her
=37	=37
(8cc	Stern
8ee-	|
8ddn)	|
8cc	der
4.b-	Herr-
8d	-lich-
=38	=38
2e-}	-keit!}
4r	.
{8e-	{Nur
8e-	die
=39	=39
4.dd-	Wu2r-
8dd-	-dig-
4.cc	-ste
8cc	von
=40	=40
4cc	al-
4f}	-len}
4r	.
{8f	{darf
8f	be-
=41	=41
4.ee-	-glu2k-
8ee-	-ken
4.dd-	dei-
8dd-	-ne
=42	=42
([2gg-	Wahl,
8gg-]	|
8cc)}	|}
{8dd-	{und
8ee-	ich
=43	=43
4.ff	will
8ff	die
4.b-	Ho-
8b-	-he
=44	=44
4ee-	seg-
4a-}	-nen}
4r	.
{8.a-	{vie-
16a-	-le
=45	=45
([2a-	tau-
8a-]	|
16b-	|
16a-	|
8g)	|
8f	-send
=46	=46
4cc}	Mal.}
4r	.
4r	.
{8c	{Will
8c	mich
=47	=47
4.b-	freu-
8b-	-en
4.an	dann
8an	und
=48	=48
4an	wei-
4d}	-nen,}
2r	.
=49	=49
{4.cc	{se-
8cc	-lig,
8b-	se-
8b-	-lig
8cc	bin
8dd	ich
=50	=50
([2ee-	dann,
8ee-]	|
8an)}	|}
{8b-	{soll-
8cc	-te
=51	=51
4.dd	mir
8dd	das
4.g	Herz
8g	auch
=52	=52
4cc	bre-
4f}	-chen,}
8r	.
{4f	{brich,
8f	o
=53	=53
4.f	Herz,
8f	was
(4f	liegt
gq	|
fq	|
8en)	|
8dn	-da-
=54	=54
2an}	-ran?}
2r	.
=57	=57
{4.g	{Er,
8en	der
8c	Herr-
8en	-lich-
8.g	-ste
16cc	von
=58	=58
4cc	al-
2f}	-len,}
{8f	{wie
8f	so
=59	=59
4.a-	mil-
8a-	-de,
(4a-S	wie
8b-)	|
8f	so
=60	=60
2g}	gut!}
4r	.
{8.g	{Hol-
16e-	-de
=61	=61
4b-	Lip-
4b-	-pen,
4r	.
8.g	kla-
16e-	-res
=62	=62
4b-	Au-
4b-}	-ge,}
4r	.
{8g	{hel-
8g	-ler
=63	=63
4.ee-	Sinn
8ee-	und
(4ee-S	fe-
8ff)	|
8cc	-ster
=64	=64
(2dd	Mut,
4dd-)}	|}
{8dd-	{wie
8dd-	so
=65	=65
(8cc	mil-
8ee-	|
8ddn)	|-
8cc	-de
4.b-	wie
8d	so
=66	=66
2e-}	gut!}
2r	.
*-	*-
